X:1
T:Title
%%score { ( 1 4 ) | ( 2 3 ) }
L:1/8
M:9/8
K:D
V:1 treble nm="Grand Piano"
V:4 treble 
V:2 bass 
V:3 bass 
V:1
 z3 z3[Q:1/4=117] [FA]3 | [FA]3- [FA]2 [FA] [DF][EG][FA] | [GB]3 [FA]3 [Ad]3 | d3- d2 e d2 B | %4
 [FA]6 [DF]3 | [EG]3- [EG]2 [EG] [CE][DF][EG] | [Ac]3 [GB]3 [EG]3 | %7
 [CGB]3- [CGB]2 [CGB] [CAc]2 [CGB] | [FA]6 [FA]3 | [FA]3- [FA]2 [FA] [DF][EG][FA] | %10
 [GB]3 [FA]3 [Fd]3 | [^Gd]3- [Gd]2 [EB] [Ec]2 [Gd] | e6 c3 | d3- d2 d cdB | [FA]3 d3 G3 | %15
 F3- F2 A [EG]F[K:bass][G,CE] |[M:3/4] [F,D]6 |[M:3/8][K:treble] [Fd]3 | %18
[M:9/8] [Gc]2 [CEG] [CEG]3 [CGB]3 | z3 z3 [Fd]3 | [^Gd]2 [EB] [Ec]3 [Gd]3 | e6 c3 | %22
 [Fd]3- [Fd]2 [Fd] cd[GB] | [FA]3 d3 G3 | F3- F2 A [EG]F[K:bass][G,CE] |[M:3/4] [F,D]6 |] %26
V:2
 z3 z3 [D,D]3 | [D,D]3- [D,D]2 [D,D] [D,A,]2 [D,D] | [D,D]3 [D,D]3 [F,=C]3 | %3
 [G,B,G]3- [G,B,G]2 [G,B,G] [G,B,G]2 [G,DG] | [D,D]6 [D,A,]3 | %5
 [A,,A,]3- [A,,A,]2 [A,,A,] [A,,A,]2 [A,,A,] | [A,,A,]3 [A,,A,]3 [A,,A,]3 | %7
 A,,3- A,,2 A,, A,,2 A,, | [D,D]6 [D,D]3 | [D,D]3- [D,D]2 [D,D] [D,A,]2 [D,D] | %10
 [D,D]3 [D,D]3 [D,D]3 | [E,B,]3- [E,B,]2 [D,^G,] [C,A,]2 [B,,B,] | [A,,CG]6 [G,A,E]3 | %13
 [F,A,D]3- [F,A,D]2 [F,A,D][K:treble] [G,D]-[G,B,D][G,DG] | [D,D]3 [F,A,D]3 [G,B,D]3 | %15
 [A,D]3- [A,D]2 [A,F] z DA,, |[M:3/4] D,6 |[M:3/8] [D,A,]3 |[M:9/8] [E,A,]2 A, A,3 A,,3 | %19
 D,3 D,3 .[D,A,]3 | [E,B,]2 [D,^G,] [C,A,]3 [B,,B,]3 | [A,,CG]6 [A,G]3 | %22
 [D,A,]3- [D,A,]2 [D,A,] ^A,B,[D,D] | [D,D]3 [F,A,D]3[K:treble] [G,B,D]3 | %24
 [A,D]3- [A,D]2 [A,F][K:bass] z DA,, |[M:3/4] D,6 |] %26
V:3
 x9 | x9 | x9 | x9 | x9 | x9 | x9 | x9 | x9 | x9 | x9 | x9 | x9 | z3 z3[K:treble] .^A,3 | x9 | %15
 z3 z3 .[A,,A,]3 |[M:3/4] x6 |[M:3/8] x3 |[M:9/8] x9 | x9 | x9 | x9 | z3 z3 .D,3 | %23
 x6[K:treble] x3 | z3 z3[K:bass] .[A,,A,]3 |[M:3/4] x6 |] %26
V:4
 x9 | x9 | x9 | x9 | x9 | x9 | x9 | x9 | x9 | x9 | x9 | x9 | x9 | x9 | x9 | x8[K:bass] x | %16
[M:3/4] x6 |[M:3/8][K:treble] x3 |[M:9/8] x9 | [DFA]3 [A,DF]3 z2 D | x9 | x9 | z3 z3 .G3 | x9 | %24
 x8[K:bass] x |[M:3/4] x6 |] %26

